careers/base/static/css/protocol/img/icons/social/pocket/black.svg

<svg width="16px" height="16px" viewBox="0 0 16 16" xmlns="http://www.w3.org/2000/svg"><title>icon/social/pocket/black</title><g id="icon/social/pocket/black" stroke="none" stroke-width="1" fill="none" fill-rule="evenodd"><path d="M8,15 C3.581722,15 5.41083001e-16,11.418278 0,7 L0,3 C-1.3527075e-16,1.8954305 0.8954305,1 2,1 L14,1 C15.1045695,1 16,1.8954305 16,3 L16,7 C16,11.418278 12.418278,15 8,15 Z M11.985,4.968 C11.7094719,4.96881215 11.4467464,5.08441137 11.26,5.287 L7.978,8.57 L4.755,5.336 C4.57095481,5.10669254 4.29400821,4.971704 4,4.968 C3.5973832,4.96805751 3.23406703,5.20956201 3.07816073,5.58076751 C2.92225442,5.951973 3.00416823,6.38047409 3.286,6.668 L3.27,6.679 L6.563,9.985 L7.27,10.692 C7.66049985,11.0823819 8.29350015,11.0823819 8.684,10.692 L9.391,9.985 L12.7,6.679 C12.9898676,6.39237313 13.0767354,5.95848615 12.9195569,5.58235699 C12.7623784,5.20622783 12.3926209,4.96315739 11.985,4.968 Z" id="icon" fill="#000000" fill-rule="nonzero"></path></g></svg>

<svg width="16" height="16" viewBox="0 0 16 16" xmlns="http://www.w3.org/2000/svg"><path d="M8 15a8 8 0 0 1-8-8V3a2 2 0 0 1 2-2h12a2 2 0 0 1 2 2v4a8 8 0 0 1-8 8zm3.985-10.032a.99.99 0 0 0-.725.319L7.978 8.57 4.755 5.336A.984.984 0 0 0 4 4.968a1 1 0 0 0-.714 1.7l-.016.011 3.293 3.306.707.707a1 1 0 0 0 1.414 0l.707-.707L12.7 6.679a1 1 0 0 0-.715-1.711z" fill="#000" fill-rule="nonzero"/></svg>
